X:1
T:Divertimeno da camera a due flauti
T: Divertimento da camera a due flauti
T:Anonimo
T:by IMSLP - Public Domain
T:by IMSLP - Public Domain
C:Anonimo
Z:by IMSLP - Public Domain
%%score { 1 2 }
L:1/8
Q:1/4=120
M:4/4
K:F
V:1 treble nm="Flute"
V:2 treble nm="Flute"
V:1
"^Allegro" fAAa ag/f/ ge | fAAa ag/f/ ge | f2 z a/b/ c'a d'd' | d'c' z a/b/ c'a d'd' | %4
 d'c' z a b2 a2 | gcec' c'2 Ta2 | Tg2 z e/f/ ge aa | Tag z e/f/ geaa | Tag z g ecd=B | %9
 c2 Ta2 gc/d/ ed | cGGe ed/c/ d=B | cGGe ed/c/ d=B | Tc2 z2 fcca | ag/f/ fe fcca | %14
 ag/f/ ge Tf2 z c | d Td2 c/B/ c c2 g/a/ | b b2 a/g/ a/g/f z c | d Td2 c/B/ c c2 g/a/ | %18
 b b2 a/g/ a/g/f z c' | d' d'2 c'/b/ c' c'2 b/a/ | b b2 a/g/ a/f/e/f/ ca | %21
 g/e/d/e/ cg f/d/c/d/ =Bf | ecc(e/f/) gcc(f/g/) | accg/a/ b b2 a/b/ | c' c'2 g/a/ b b2 a/b/ | %25
 c' c'2 b ag/f/ ge | fcca ag/f/ ge | fcca ag/f/ ge | f2 z c d d2 c/B/ | e e2 d/c/ f f2 e/d/ | %30
 g g2 f/e/ a a2 g/f/ | b b2 a/g/ a/g/f z a/b/ | c'a d'd' d'c' z a/b/ | c'a d'd' d'c' z c | %34
 (3(def) (3(efg) (3(fga) (3(gab) | ag z b T_ag z _a | =BBBc _BBBe | gb ag/a/ bg ag/a/ | %38
 b(a/g/) af a2 Tg2 | f4 z4 ||[M:3/4][Q:1/4=110]"^Minuetto" f2 c2 f2 | agag f2 | ab c'2 d'2 | %43
 Tb4 a2 | ga b2 a2 | Tg6 | ef g2 a2 | Tg3 f e2 | f2 e2 d2 | c6 :: e2 c2 e2 | gfge e2 | ef g2 a2 | %53
 Tg3 f e2 | ef g2 a2 | Tg6 | c'2 d'c'd'c' | Tb4 a2 | c'2 d'c'd'c' | Tb4 a2 | ga c'2 a2 | g2 e2 f2 | %62
 fg a2 g2 | f6 :| %64
V:2
 cAAc cB/A/ BG | AAAc cB/A/ BG | A2 z f/g/ af bb | ba z f/g/ bf bb | ba z a g2 f2 | e2 z a g2 f2 | %6
 e2 z c/d/ ec ff | fe z c/d/ ec ff | Tfe z g gefd | e2 Tf2 ee/d/ c=B | cGGc c=B/A/ BG | %11
 cGGc c=B/A/ BG | Tc2 z2 fcca | cB/A/ BG AAAc | cB/A/ BG A2 z A | B B2 A/G/ A A2 e/f/ | %16
 g g2 f/e/ f/f/f z A | B B2 A/G/ A A2 e/f/ | g g2 f/e/ f/e/f z a | b b2 a/g/ a a2 g/f/ | %20
 g g2 f/e/ f2 z f | e2 z e d2 z d | ccc(c/d/) ecc(d/e/) | fcce/f/ g g2 f/g/ | a a2 e/f/ g g2 f/g/ | %25
 a a2 g cB/A/ BG | AAAc cB/A/ BG | AAAc cB/A/ BG | A2 z A B B2 A/G/ | c c2 B/A/ d d2 c/B/ | %30
 e e2 d/c/ f f2 f/d/ | g g2 g/f/ f/e/f z f/g/ | af bb ba z f/g/ | af bb ba z A | %34
 (3(Bcd) (3(cde) (3(def) (3(efg) | fe z g fe z f | GGGG GGGc | eg fe/f/ ge fe/f/ | %38
 gf/e/ ff f2 Te2 | f4 z4 ||[M:3/4] c2 G2 c2 | cBcB A2 | fg a2 b2 | Tg4 f2 | ef g2 f2 | Te6 | %46
 cd e2 f2 | Te3 d c2 | d2 c2 =B2 | c6 :: c2 G2 c2 | eded c2 | cd e2 f2 | Te3 d c2 | cd e2 f2 | %55
 Te6 | a2 baba | Tg4 f2 | a2 baba | Tg4 f2 | ef g2 f2 | e2 c2 A2 | AB c2 B2 | A6 :| %64

